X:14
T:Sunset over Foula / Isles of Gletness / Starry Nights medley
D:The Ruby / Bain & Cunningham / GLCD 3123
R:Waltz
M:3/4
L:1/4
K:D
|:A|\
"D"d2e|   d2F|"F#m"A3|   F2A|"G"B2c|"D"d2F|"A7"A3-|A2 A|\
"D"f2g|"A"f2e|  "G"d3|"D"A2d|"G"B2c|"D"d2F| "A"E3-|E2 A|
"D"d2e|   d2F|"F#m"A3|   F2A|"G"B2c|"D"d2F|"A7"A3-|A2 A|\
"D"f2g|"A"f2e|  "G"d3|   B2d|"D"A2d|"A"f2e| "D"d3-|d2::
K:G
B/c/|\
"G"d>ed|B>AG|"C"E>FG|"G"GD B/c/|    d>ed|   B>AG|"Em"E>GB|"D"A2 B/c/|
"G"d>ed|B>AG|"C"E>FG|"G"GD A/B/| "C"c>de|"G"d>BG| "D"D>FA|"G"G3     |
"C"E>Gc|e2 c|"G"D>GB|   d2 B   |"Em"G>FG|"C"G2 E|"Em"E>GB|"D"A2 B/c/|
"G"d>ed|B>AG|"C"E>FG|"G"GD A/B/| "C"c>de|"G"d>BG| "D"D>FA|"G"G2::
K:D
A|
"D"f2d|"D"ABA|"Em"G3|"A"c2B|"A"A2c    |"A7"e2A| "D"f>gf/e/| "D"d2A|
"D"f2d|"D"ABA|"Em"G3|"A"c2B|"A"A>ce/f/|"A7"gBc| "D"d>ed/c/| "D"def|
"G"gBg|"G"gBg|"D"fAf|"D"fAf|"D"fdf    |"Bm"agf|"Em"e>fe   |"A7"e2A|
"D"f2d|"D"ABA|"Em"G3|"A"c2B|"A"A>ce/f/|"A7"gBc| "D"d3-    | "D"d2:|
